build/img/complite.svg

<svg width="20" height="20" viewBox="0 0 20 20" fill="none" xmlns="http://www.w3.org/2000/svg">
<path fill-rule="evenodd" clip-rule="evenodd" d="M5.67009 0H14.3401C17.7301 0 20.0001 2.38 20.0001 5.92V14.091C20.0001 17.62 17.7301 20 14.3401 20H5.67009C2.28009 20 9.15527e-05 17.62 9.15527e-05 14.091V5.92C9.15527e-05 2.38 2.28009 0 5.67009 0ZM9.43009 12.99L14.1801 8.24C14.5201 7.9 14.5201 7.35 14.1801 7C13.8401 6.66 13.2801 6.66 12.9401 7L8.81009 11.13L7.06009 9.38C6.72009 9.04 6.16009 9.04 5.82009 9.38C5.48009 9.72 5.48009 10.27 5.82009 10.62L8.20009 12.99C8.37009 13.16 8.59009 13.24 8.81009 13.24C9.04009 13.24 9.26009 13.16 9.43009 12.99Z" fill="#27AE60"/>
</svg>

<svg width="20" height="20" fill="none" xmlns="http://www.w3.org/2000/svg"><path fill-rule="evenodd" clip-rule="evenodd" d="M5.67 0h8.67C17.73 0 20 2.38 20 5.92v8.171C20 17.62 17.73 20 14.34 20H5.67C2.28 20 0 17.62 0 14.091V5.92C0 2.38 2.28 0 5.67 0zm3.76 12.99l4.75-4.75c.34-.34.34-.89 0-1.24a.881.881 0 00-1.24 0l-4.13 4.13-1.75-1.75a.881.881 0 00-1.24 0c-.34.34-.34.89 0 1.24l2.38 2.37c.17.17.39.25.61.25.23 0 .45-.08.62-.25z" fill="#27AE60"/></svg>
